X:19
T:Peuple fidle - F5
C:J.F. Wade
M:C
L:1/4
K:F
F2CF|G2 C2|AGAB|A2GF|F2ED|EFGA|E2D2|C4||c2BA|B2A2|
GAFG|EDCF|FEFG|F2CA|AGAB|A2GA|BAGF|E2FB|A2G3/F/|F4||
